X:1
T: No Surrender
M:6/8
L:1/8
K:G
B/2-A/2| G2 EE-F G| D2 DD-E F| G2 GG-A B| c3 B2 A| G2 EE-F G| D2 D D2B/2-c/2|\
 d2 e d2 B| A3 G2 D| G2 A B2 c| d2 e d2 D| G2 A B2 c| d3 B2 d| e2 e d2 B|\
 c2 c B2 A| G2 EE-F G| c3 B2 A| G2 EE-F G| D2 DD-E F| G2 G F2 D| c3 B2 A|\
 G2 EE-F G| D2 D D2B/2-c/2| d2 e d2 B| A3 G2||
